!!!!SEGMENT: pl-sa--549-a-ix-29--037_anonim--mazur-lspiew-janka.krn
!!!cenid: 18xx:491
!!!COM: Anonim
!!!COM-rismID: pe30004985
!!!CDT:
!!!CNT:
!!!OTL: Mazur śpiew Janka
!!!PDT:
!!!AGN: Secular; Mazurka
!!!SMS-siglum: PL-SA
!!!SMS-shelfmark: 549/A IX 29
!!!SMS-shelfwork: 037 W
!!!SMS-variant:
!!!SMS-altvar:
!!!NIFC-rismSourceID: 1001068929
!!!NIFC-rismChildID: 1001068929
!!!NIFC-islandoraID: none
!!!URL-pdf-islandora:
!!!URL-scan: https://bc.bdsandomierz.pl/dlibra/publication/1441/edition/1409/content @EN{Scan in the Sandomierz Diocese Digital Library} @PL{Skany w portalu Cyfrowa Biblioteka Diecezjalna w Sandomierzu}
!!!ONB-nifc: Str. 28, s. 1-3
!!!AIN: 2 piano
!!!key: A
**kern	**kern
*part2	*part1
*staff2	*staff1
*I"[Pianoforte]	*I"[Pianoforte]
*I'	*I'
*Ipiano	*Ipiano
*ICklav	*ICklav
*clefF4	*clefG2
*k[g#c#f#]	*k[g#f#c#]
*A:	*A:
*M3/8	*M3/8
=1	=1
!LO:TX:t=P:znaki:problem= GG# zamiast G#	!LO:TX:t=P:znaki:problem= g# zamiast gg#
8A\L	16a\LL
.	16cc#\
8e 8c#\	16ee\
.	16ff#\
8eJ 8c#\	16ee\
.	16dd#X\JJ
=2	=2
*rep	*
8A\L	4ee\
8e 8c#\	.
8eJ 8c#\	8cc#\
*Xrep	*
=3	=3
8E\L	16ee\LL
.	16dd\
8d 8B\	16b\
.	16a\
8dJ 8B\	16b\
.	16cc#\JJ
=4	=4
8A\L	4a/
8e 8c#\	.
8eJ 8c#\	8a/
=5	=5
*rep	*
8A\L	16a\LL
.	16cc#\
8e 8c#\	16ee\
.	16ff#\
8eJ 8c#\	16ee\
.	16dd#X\JJ
*Xrep	*
=6	=6
*rep	*
8A\L	4ee\
8e 8c#\	.
8eJ 8c#\	8cc#\
*Xrep	*
=7	=7
8E\L	16ee\LL
.	16dd\
8d 8B\	16b\
.	16a\
8dJ 8B\	16b\
.	16cc#\JJ
=8	=8
8A\L	4a\
8e 8c#\	.
!	!LO:N:vis=4
8eJ 8c#\	8ee\
!!LO:TX:t=[segno]:problem:znak segno na kresce taktowej
=9:|!|:	=9:|!|:
16dLL 16B\	16gg#\LL
16e\	16aa\
16E\	16bb\
16e\	16ee\
16d 16B\	16ff#\
16e\JJ	16gg#\JJ
=10	=10
16c#LL 16A\	16aa\LL
16e\	16bb\
.	16qddd/
16E\	16ccc#\
16e\	16bb\
16c# 16A\	16ccc#\
16e\JJ	16aa\JJ
!!LO:LB:g=original
=11	=11
16dLL 16B\	16gg#\LL
16e\	16aa\
16E\	16bb\
16e\	16ee\
16d 16B\	16ff#\
16e\JJ	16gg#\JJ
=12	=12
4c# 4A\	4aa\
8r	8r
=13:|!|:;	=13:|!|:;
8A\L	16a\LL
.	16cc#\
8e 8c#\	16ee\
.	16ff#\
8eJ 8c#\	16ee\
.	16dd#X\JJ
=14	=14
*rep	*
8A\L	4ee\
8e 8c#\	.
!	!LO:N:vis=4
8eJ 8c#\	8cc#\
*Xrep	*
=15	=15
8E\L	16ee\LL
.	16dd\
8d 8B\	16b\
.	16a\
8dJ 8B\	16b\
.	16cc#\JJ
=16	=16
8A\L	4a/
8e 8c#\	.
!	!LO:N:vis=4
8eJ 8c#\	8e/
=17	=17
*rep	*
8A\L	16a\LL
.	16cc#\
8e 8c#\	16ee\
.	16ff#\
8eJ 8c#\	16ee\
.	16dd#X\JJ
*Xrep	*
=18	=18
*rep	*
8A\L	4ee\
8e 8c#\	.
!	!LO:N:vis=4
8eJ 8c#\	8cc#\
*Xrep	*
=19	=19
8E\L	16ee\LL
.	16dd\
8d 8B\	16b\
.	16a\
8dJ 8B\	16b\
.	16cc#\JJ
=20	=20
8A\L	4a/
8e 8c#\	.
8eJ 8c#\	8r
=21	=21
8E\L	16g#\LL
.	16g#\
8B 8G#\	16b\
.	16b\
8BJ 8G#\	16ee\
.	16ee\JJ
=22	=22
*rep	*
8E\L	16b\LL
.	16b\J
!	!LO:TX:t=P:problem=belka szesnastkowa poprawiona na ósemkową
8B 8G#\	8ee\
8BJ 8G#\	8ee\J
*Xrep	*
!!LO:LB:g=original
=23	=23
8E\L	8b/L
8B 8G#\	8g#/J
!	!LO:N:vis=8
8AJ 8F# 8BB\	16a/LL
!	!LO:N:vis=8
.	16f#/JJ
=24	=24
8E\L	16b/LL
.	16g#/JJ
8BJ 8G#\	16e/LL
.	16dd 16b 16g#/
8r	16cc# 16a 16f#/
.	16bJJ 16g#/
=25	=25
8A\L	16a\LL
.	16cc#\
8e 8c#\	16ee\
.	16ff#\
8eJ 8c#\	16ee\
.	16dd#X\JJ
=26	=26
*rep	*
8A\L	4ee\
8e 8c#\	.
!	!LO:N:vis=4
8eJ 8c#\	8cc#\
*Xrep	*
=27	=27
8E\L	16ee\LL
.	16dd\
8d 8B\	16b\
.	16a\
8dJ 8B\	16b\
.	16cc#\JJ
=28	=28
8A\L	4cc#\
8e 8c#\	.
8eJ 8c#\	8aa\
!	!LO:TX:b:i:t=Dal. Segno
=:|!	=:|!
*-	*-
!!!system-decoration: {(s1,s2)}
!!!ENC: Katarzyna Serwa
!!!END: 2022-01-13
!!!ENC: Mateusz Solarz
!!!END: 2020-06-18
!!!YEC: Copyright 2022 Narodowy Instytut Fryderyka Chopina (https://polishscores.org)
!!!YEM: License CC-BY-4.0 (https://creativecommons.org/licenses/by/4.0)
